X: 5871
T: Calon Lan
R: polka
M: 2/4
K: Gmajor
DG B2|BG AB|G2 D2|EF G2|
GE cB|B2 A2|DG B2|BG AB|
G2 E2|GE D2|DG GF|G2 G2||
BG d2|dB AG|G2 F2|AB c2|
cd BA|B2 B2|D2 E2|E2 F2|
G2 A2|GA B2|BG GF|G2 G2||

